TileServer und Tiles/svg/9/33_1.svg

<?xml version='1.0' encoding='UTF-8' standalone='no'?>
<svg xmlns="http://www.w3.org/2000/svg" width="497pt" viewBox="0 0 497 279" xmlns:xlink="http://www.w3.org/1999/xlink" height="279pt">
 <defs style="stroke:none;" overflow="visible">
  <path id="glyph0-6" d="M 7.046875 -9.234375 L 8.109375 -9.234375 L 8.109375 -10.359375 L 10.5625 -10.359375 L 10.5625 -9.234375 L 11.640625 -9.234375 L 11.640625 -10.359375 L 14.140625 -10.359375 L 14.140625 -11.3125 L 11.640625 -11.3125 L 11.640625 -12.546875 L 10.5625 -12.546875 L 10.5625 -11.3125 L 8.109375 -11.3125 L 8.109375 -12.546875 L 7.046875 -12.546875 L 7.046875 -11.3125 L 4.75 -11.3125 L 4.75 -10.359375 L 7.046875 -10.359375 Z M 4.421875 -10.421875 C 3.921875 -10.953125 2.890625 -11.703125 2.0625 -12.203125 L 1.390625 -11.46875 C 2.1875 -10.9375 3.203125 -10.140625 3.6875 -9.59375 Z M 3.78125 -6.65625 C 3.234375 -7.140625 2.171875 -7.8125 1.34375 -8.25 L 0.6875 -7.484375 C 1.53125 -7 2.578125 -6.296875 3.09375 -5.796875 Z M 3.25 -4.625 C 2.578125 -2.953125 1.640625 -1.046875 0.984375 0.109375 L 2 0.75 C 2.703125 -0.625 3.515625 -2.4375 4.140625 -3.96875 Z M 6.53125 -6.25 L 12.1875 -6.25 L 12.1875 -5.1875 L 6.53125 -5.1875 Z M 6.53125 -8.109375 L 12.1875 -8.109375 L 12.1875 -7.046875 L 6.53125 -7.046875 Z M 14.21875 -2.15625 L 14.21875 -3.109375 L 9.59375 -3.109375 C 9.6875 -3.5 9.75 -3.921875 9.8125 -4.34375 L 13.25 -4.34375 L 13.25 -8.953125 L 5.46875 -8.953125 L 5.46875 -4.34375 L 8.71875 -4.34375 C 8.65625 -3.90625 8.59375 -3.484375 8.484375 -3.109375 L 4.484375 -3.109375 L 4.484375 -2.15625 L 8.125 -2.15625 C 7.53125 -0.984375 6.359375 -0.203125 3.96875 0.265625 C 4.1875 0.484375 4.453125 0.921875 4.546875 1.15625 C 7.375 0.546875 8.703125 -0.53125 9.328125 -2.15625 C 10.15625 -0.484375 11.6875 0.640625 13.78125 1.15625 C 13.921875 0.875 14.21875 0.4375 14.453125 0.21875 C 12.625 -0.125 11.203125 -0.9375 10.390625 -2.15625 Z M 14.21875 -2.15625 "/>
  <path id="glyph0-5" d="M 8.953125 -12.515625 L 8.953125 -4.75 C 8.953125 -4.546875 8.875 -4.484375 8.65625 -4.484375 C 8.4375 -4.46875 7.6875 -4.46875 6.875 -4.484375 C 7.015625 -4.171875 7.203125 -3.703125 7.25 -3.40625 C 8.34375 -3.40625 9.046875 -3.421875 9.484375 -3.59375 C 9.921875 -3.78125 10.0625 -4.109375 10.0625 -4.734375 L 10.0625 -12.515625 Z M 6.484375 -10.125 C 6.046875 -8.5625 5.328125 -6.96875 4.484375 -5.90625 C 4.75 -5.78125 5.21875 -5.5 5.4375 -5.34375 C 6.265625 -6.453125 7.046875 -8.1875 7.5625 -9.90625 Z M 11.4375 -9.890625 C 12.265625 -8.625 13.125 -6.921875 13.4375 -5.78125 L 14.453125 -6.25 C 14.109375 -7.359375 13.25 -9.046875 12.359375 -10.296875 Z M 12.296875 -5.75 C 11.265625 -2.4375 8.96875 -0.625 4.90625 0.171875 C 5.140625 0.421875 5.421875 0.859375 5.515625 1.1875 C 9.8125 0.1875 12.25 -1.8125 13.34375 -5.4375 Z M 1.421875 -11.625 C 2.390625 -11.171875 3.5625 -10.4375 4.125 -9.90625 L 4.78125 -10.78125 C 4.1875 -11.34375 3 -12.015625 2.046875 -12.421875 Z M 0.625 -7.609375 C 1.609375 -7.171875 2.796875 -6.484375 3.390625 -5.96875 L 4 -6.90625 C 3.40625 -7.390625 2.1875 -8.046875 1.234375 -8.421875 Z M 1.109375 0.203125 L 2.0625 0.9375 C 2.875 -0.453125 3.875 -2.3125 4.609375 -3.890625 L 3.78125 -4.59375 C 2.953125 -2.890625 1.875 -0.9375 1.109375 0.203125 Z M 1.109375 0.203125 "/>
  <path id="glyph0-4" d="M 7.078125 -5.203125 C 6.71875 -5.640625 5.125 -7.46875 4.640625 -7.9375 L 4.640625 -8.28125 L 6.765625 -8.28125 L 6.765625 -9.34375 L 4.640625 -9.34375 L 4.640625 -12.5625 L 3.546875 -12.5625 L 3.546875 -9.34375 L 0.875 -9.34375 L 0.875 -8.28125 L 3.34375 -8.28125 C 2.78125 -6.203125 1.625 -3.90625 0.5 -2.640625 C 0.6875 -2.375 0.953125 -1.9375 1.09375 -1.609375 C 2 -2.65625 2.890625 -4.390625 3.546875 -6.1875 L 3.546875 1.125 L 4.640625 1.125 L 4.640625 -6.59375 C 5.25 -5.8125 6.015625 -4.78125 6.34375 -4.25 Z M 14.046875 -8.28125 L 14.046875 -9.34375 L 11.203125 -9.34375 L 11.203125 -12.5625 L 10.109375 -12.5625 L 10.109375 -9.34375 L 7.40625 -9.34375 L 7.40625 -8.28125 L 9.875 -8.28125 C 9.1875 -5.875 7.78125 -3.4375 6.359375 -2.046875 C 6.5625 -1.78125 6.875 -1.359375 7.015625 -1.0625 C 8.1875 -2.234375 9.3125 -4.1875 10.109375 -6.234375 L 10.109375 1.125 L 11.203125 1.125 L 11.203125 -6.28125 C 11.859375 -4.3125 12.734375 -2.484375 13.65625 -1.328125 C 13.84375 -1.640625 14.234375 -2.015625 14.5 -2.203125 C 13.3125 -3.515625 12.171875 -5.90625 11.484375 -8.28125 Z M 14.046875 -8.28125 "/>
  <path id="glyph0-3" d="M 11.21875 -3.4375 L 11.21875 -0.46875 L 3.875 -0.46875 L 3.875 -3.4375 Z M 2.75 1.296875 L 3.875 1.296875 L 3.875 0.5625 L 11.21875 0.5625 L 11.21875 1.296875 L 12.40625 1.296875 L 12.40625 -4.453125 L 2.75 -4.453125 Z M 13.984375 -9.40625 L 13.984375 -10.453125 L 8.046875 -10.453125 L 8.046875 -12.5625 L 6.90625 -12.5625 L 6.90625 -10.453125 L 0.984375 -10.453125 L 0.984375 -9.40625 L 6.90625 -9.40625 L 6.90625 -7.203125 L 1.921875 -7.203125 L 1.921875 -6.140625 L 13.234375 -6.140625 L 13.234375 -7.203125 L 8.046875 -7.203125 L 8.046875 -9.40625 Z M 13.984375 -9.40625 "/>
  <path id="glyph0-2" d="M 5.609375 -9.328125 C 6.625 -8.53125 7.90625 -7.375 8.5 -6.640625 L 9.34375 -7.34375 C 8.71875 -8.078125 7.4375 -9.203125 6.390625 -9.953125 Z M 4.09375 -6.03125 C 4.109375 -6.265625 4.109375 -6.5 4.109375 -6.71875 L 4.109375 -10.734375 L 11.03125 -10.734375 L 11.03125 -6.03125 Z M 14.171875 -6.03125 L 12.15625 -6.03125 L 12.15625 -11.765625 L 3 -11.765625 L 3 -6.734375 C 3 -6.515625 3 -6.265625 2.984375 -6.03125 L 0.859375 -6.03125 L 0.859375 -4.96875 L 2.9375 -4.96875 C 2.78125 -3.09375 2.234375 -1.109375 0.5625 0.390625 C 0.828125 0.5625 1.25 0.96875 1.390625 1.1875 C 3.234375 -0.46875 3.859375 -2.828125 4.03125 -4.96875 L 11.03125 -4.96875 L 11.03125 -0.328125 C 11.03125 -0.015625 10.90625 0.078125 10.609375 0.09375 C 10.28125 0.109375 9.15625 0.125 7.984375 0.078125 C 8.15625 0.359375 8.34375 0.859375 8.40625 1.15625 C 9.9375 1.15625 10.875 1.140625 11.421875 0.96875 C 11.9375 0.796875 12.15625 0.4375 12.15625 -0.328125 L 12.15625 -4.96875 L 14.171875 -4.96875 Z M 14.171875 -6.03125 "/>
  <path id="glyph0-1" d="M 6.84375 -10.59375 L 6.84375 -6.4375 L 3.109375 -6.4375 L 3.109375 -10.59375 Z M 11.703125 -6.4375 L 7.9375 -6.4375 L 7.9375 -10.59375 L 11.703125 -10.59375 Z M 5.0625 -0.234375 C 3.421875 -0.234375 3.109375 -0.515625 3.109375 -1.671875 L 3.109375 -5.359375 L 11.703125 -5.359375 L 11.703125 -4.578125 L 12.84375 -4.578125 L 12.84375 -11.6875 L 1.984375 -11.6875 L 1.984375 -1.6875 C 1.984375 0.359375 2.734375 0.859375 5.15625 0.859375 L 11.078125 0.859375 C 13.390625 0.859375 13.90625 0.0625 14.171875 -2.3125 C 13.84375 -2.390625 13.328125 -2.59375 13.046875 -2.78125 C 12.828125 -0.71875 12.5625 -0.234375 11.0625 -0.234375 Z M 5.0625 -0.234375 "/>
  <path id="glyph0-0" d="M 1.5 1.796875 L 13.5 1.796875 L 13.5 -13.203125 L 1.5 -13.203125 Z M 7.5 -6.3125 L 2.734375 -12.453125 L 12.265625 -12.453125 Z M 7.984375 -5.703125 L 12.75 -11.828125 L 12.75 0.4375 Z M 2.734375 1.046875 L 7.5 -5.078125 L 12.265625 1.046875 Z M 2.25 -11.828125 L 7.015625 -5.703125 L 2.25 0.4375 Z M 2.25 -11.828125 "/>
 </defs>
 <image width="497" xlink:href="svg/9/33_1.jpg" height="279"/>
 <g>
  <path d="M 41.832031 130.140625 L 41.832031 134.296875 L 38.097656 134.296875 L 38.097656 130.140625 Z M 46.691406 134.296875 L 42.925781 134.296875 L 42.925781 130.140625 L 46.691406 130.140625 Z M 40.050781 140.5 C 38.410156 140.5 38.097656 140.21875 38.097656 139.0625 L 38.097656 135.375 L 46.691406 135.375 L 46.691406 136.15625 L 47.832031 136.15625 L 47.832031 129.046875 L 36.972656 129.046875 L 36.972656 139.046875 C 36.972656 141.09375 37.722656 141.59375 40.144531 141.59375 L 46.066406 141.59375 C 48.378906 141.59375 48.894531 140.796875 49.160156 138.421875 C 48.832031 138.34375 48.316406 138.140625 48.035156 137.953125 C 47.816406 140.015625 47.550781 140.5 46.050781 140.5 Z M 40.050781 140.5 " transform=" rotate(  340 64.9876 147.65) " style="fill:none;stroke-width:2;stroke-linecap:butt;stroke-linejoin:round;stroke:rgb(100%,100%,100%);stroke-opacity:0.6;stroke-miterlimit:10;"/>
  <path d="M 55.597656 131.40625 C 56.613281 132.203125 57.894531 133.359375 58.488281 134.09375 L 59.332031 133.390625 C 58.707031 132.65625 57.425781 131.53125 56.378906 130.78125 Z M 54.082031 134.703125 C 54.097656 134.46875 54.097656 134.234375 54.097656 134.015625 L 54.097656 130 L 61.019531 130 L 61.019531 134.703125 Z M 64.160156 134.703125 L 62.144531 134.703125 L 62.144531 128.96875 L 52.988281 128.96875 L 52.988281 134 C 52.988281 134.21875 52.988281 134.46875 52.972656 134.703125 L 50.847656 134.703125 L 50.847656 135.765625 L 52.925781 135.765625 C 52.769531 137.640625 52.222656 139.625 50.550781 141.125 C 50.816406 141.296875 51.238281 141.703125 51.378906 141.921875 C 53.222656 140.265625 53.847656 137.90625 54.019531 135.765625 L 61.019531 135.765625 L 61.019531 140.40625 C 61.019531 140.71875 60.894531 140.8125 60.597656 140.828125 C 60.269531 140.84375 59.144531 140.859375 57.972656 140.8125 C 58.144531 141.09375 58.332031 141.59375 58.394531 141.890625 C 59.925781 141.890625 60.863281 141.875 61.410156 141.703125 C 61.925781 141.53125 62.144531 141.171875 62.144531 140.40625 L 62.144531 135.765625 L 64.160156 135.765625 Z M 64.160156 134.703125 " transform=" rotate(  340 64.9876 147.65) " style="fill:none;stroke-width:2;stroke-linecap:butt;stroke-linejoin:round;stroke:rgb(100%,100%,100%);stroke-opacity:0.6;stroke-miterlimit:10;"/>
  <path d="M 76.207031 137.296875 L 76.207031 140.265625 L 68.863281 140.265625 L 68.863281 137.296875 Z M 67.738281 142.03125 L 68.863281 142.03125 L 68.863281 141.296875 L 76.207031 141.296875 L 76.207031 142.03125 L 77.394531 142.03125 L 77.394531 136.28125 L 67.738281 136.28125 Z M 78.972656 131.328125 L 78.972656 130.28125 L 73.035156 130.28125 L 73.035156 128.171875 L 71.894531 128.171875 L 71.894531 130.28125 L 65.972656 130.28125 L 65.972656 131.328125 L 71.894531 131.328125 L 71.894531 133.53125 L 66.910156 133.53125 L 66.910156 134.59375 L 78.222656 134.59375 L 78.222656 133.53125 L 73.035156 133.53125 L 73.035156 131.328125 Z M 78.972656 131.328125 " transform=" rotate(  340 64.9876 147.65) " style="fill:none;stroke-width:2;stroke-linecap:butt;stroke-linejoin:round;stroke:rgb(100%,100%,100%);stroke-opacity:0.6;stroke-miterlimit:10;"/>
  <path d="M 87.066406 135.53125 C 86.707031 135.09375 85.113281 133.265625 84.628906 132.796875 L 84.628906 132.453125 L 86.753906 132.453125 L 86.753906 131.390625 L 84.628906 131.390625 L 84.628906 128.171875 L 83.535156 128.171875 L 83.535156 131.390625 L 80.863281 131.390625 L 80.863281 132.453125 L 83.332031 132.453125 C 82.769531 134.53125 81.613281 136.828125 80.488281 138.09375 C 80.675781 138.359375 80.941406 138.796875 81.082031 139.125 C 81.988281 138.078125 82.878906 136.34375 83.535156 134.546875 L 83.535156 141.859375 L 84.628906 141.859375 L 84.628906 134.140625 C 85.238281 134.921875 86.003906 135.953125 86.332031 136.484375 Z M 94.035156 132.453125 L 94.035156 131.390625 L 91.191406 131.390625 L 91.191406 128.171875 L 90.097656 128.171875 L 90.097656 131.390625 L 87.394531 131.390625 L 87.394531 132.453125 L 89.863281 132.453125 C 89.175781 134.859375 87.769531 137.296875 86.347656 138.6875 C 86.550781 138.953125 86.863281 139.375 87.003906 139.671875 C 88.175781 138.5 89.300781 136.546875 90.097656 134.5 L 90.097656 141.859375 L 91.191406 141.859375 L 91.191406 134.453125 C 91.847656 136.421875 92.722656 138.25 93.644531 139.40625 C 93.832031 139.09375 94.222656 138.71875 94.488281 138.53125 C 93.300781 137.21875 92.160156 134.828125 91.472656 132.453125 Z M 94.035156 132.453125 " transform=" rotate(  340 64.9876 147.65) " style="fill:none;stroke-width:2;stroke-linecap:butt;stroke-linejoin:round;stroke:rgb(100%,100%,100%);stroke-opacity:0.6;stroke-miterlimit:10;"/>
  <path d="M 58.941406 148.050781 L 58.941406 155.816406 C 58.941406 156.019531 58.863281 156.082031 58.644531 156.082031 C 58.425781 156.097656 57.675781 156.097656 56.863281 156.082031 C 57.003906 156.394531 57.191406 156.863281 57.238281 157.160156 C 58.332031 157.160156 59.035156 157.144531 59.472656 156.972656 C 59.910156 156.785156 60.050781 156.457031 60.050781 155.832031 L 60.050781 148.050781 Z M 56.472656 150.441406 C 56.035156 152.003906 55.316406 153.597656 54.472656 154.660156 C 54.738281 154.785156 55.207031 155.066406 55.425781 155.222656 C 56.253906 154.113281 57.035156 152.378906 57.550781 150.660156 Z M 61.425781 150.675781 C 62.253906 151.941406 63.113281 153.644531 63.425781 154.785156 L 64.441406 154.316406 C 64.097656 153.207031 63.238281 151.519531 62.347656 150.269531 Z M 62.285156 154.816406 C 61.253906 158.128906 58.957031 159.941406 54.894531 160.738281 C 55.128906 160.988281 55.410156 161.425781 55.503906 161.753906 C 59.800781 160.753906 62.238281 158.753906 63.332031 155.128906 Z M 51.410156 148.941406 C 52.378906 149.394531 53.550781 150.128906 54.113281 150.660156 L 54.769531 149.785156 C 54.175781 149.222656 52.988281 148.550781 52.035156 148.144531 Z M 50.613281 152.957031 C 51.597656 153.394531 52.785156 154.082031 53.378906 154.597656 L 53.988281 153.660156 C 53.394531 153.175781 52.175781 152.519531 51.222656 152.144531 Z M 51.097656 160.769531 L 52.050781 161.503906 C 52.863281 160.113281 53.863281 158.253906 54.597656 156.675781 L 53.769531 155.972656 C 52.941406 157.675781 51.863281 159.628906 51.097656 160.769531 Z M 51.097656 160.769531 " transform=" rotate(  340 64.9876 147.65) " style="fill:none;stroke-width:2;stroke-linecap:butt;stroke-linejoin:round;stroke:rgb(100%,100%,100%);stroke-opacity:0.6;stroke-miterlimit:10;"/>
  <path d="M 72.035156 151.332031 L 73.097656 151.332031 L 73.097656 150.207031 L 75.550781 150.207031 L 75.550781 151.332031 L 76.628906 151.332031 L 76.628906 150.207031 L 79.128906 150.207031 L 79.128906 149.253906 L 76.628906 149.253906 L 76.628906 148.019531 L 75.550781 148.019531 L 75.550781 149.253906 L 73.097656 149.253906 L 73.097656 148.019531 L 72.035156 148.019531 L 72.035156 149.253906 L 69.738281 149.253906 L 69.738281 150.207031 L 72.035156 150.207031 Z M 69.410156 150.144531 C 68.910156 149.613281 67.878906 148.863281 67.050781 148.363281 L 66.378906 149.097656 C 67.175781 149.628906 68.191406 150.425781 68.675781 150.972656 Z M 68.769531 153.910156 C 68.222656 153.425781 67.160156 152.753906 66.332031 152.316406 L 65.675781 153.082031 C 66.519531 153.566406 67.566406 154.269531 68.082031 154.769531 Z M 68.238281 155.941406 C 67.566406 157.613281 66.628906 159.519531 65.972656 160.675781 L 66.988281 161.316406 C 67.691406 159.941406 68.503906 158.128906 69.128906 156.597656 Z M 71.519531 154.316406 L 77.175781 154.316406 L 77.175781 155.378906 L 71.519531 155.378906 Z M 71.519531 152.457031 L 77.175781 152.457031 L 77.175781 153.519531 L 71.519531 153.519531 Z M 79.207031 158.410156 L 79.207031 157.457031 L 74.582031 157.457031 C 74.675781 157.066406 74.738281 156.644531 74.800781 156.222656 L 78.238281 156.222656 L 78.238281 151.613281 L 70.457031 151.613281 L 70.457031 156.222656 L 73.707031 156.222656 C 73.644531 156.660156 73.582031 157.082031 73.472656 157.457031 L 69.472656 157.457031 L 69.472656 158.410156 L 73.113281 158.410156 C 72.519531 159.582031 71.347656 160.363281 68.957031 160.832031 C 69.175781 161.050781 69.441406 161.488281 69.535156 161.722656 C 72.363281 161.113281 73.691406 160.035156 74.316406 158.410156 C 75.144531 160.082031 76.675781 161.207031 78.769531 161.722656 C 78.910156 161.441406 79.207031 161.003906 79.441406 160.785156 C 77.613281 160.441406 76.191406 159.628906 75.378906 158.410156 Z M 79.207031 158.410156 " transform=" rotate(  340 64.9876 147.65) " style="fill:none;stroke-width:2;stroke-linecap:butt;stroke-linejoin:round;stroke:rgb(100%,100%,100%);stroke-opacity:0.6;stroke-miterlimit:10;"/>
  <g transform=" rotate(  340 64.9876 147.65) " style="fill:rgb(62.745098%,49.411765%,10.980392%);fill-opacity:1;">
   <use xlink:href="#glyph0-1" y="140.735126" x="34.987593"/>
   <use xlink:href="#glyph0-2" y="140.735126" x="49.987593"/>
   <use xlink:href="#glyph0-3" y="140.735126" x="64.987593"/>
   <use xlink:href="#glyph0-4" y="140.735126" x="79.987593"/>
   <use xlink:href="#glyph0-5" y="160.565126" x="49.987593"/>
   <use xlink:href="#glyph0-6" y="160.565126" x="64.987593"/>
  </g>
 </g>
</svg>

<svg xmlns="http://www.w3.org/2000/svg" xmlns:xlink="http://www.w3.org/1999/xlink" viewBox="0 0 497 279"> <defs overflow="visible" style="stroke:none">  <path id="f" d="M7-9.2h1.1v-1.2h2.5v1.2h1v-1.2h2.5v-1h-2.5v-1h-1v1.1H8v-1.2h-.9v1.2H4.7v1H7Zm-2.6-1.2a13 13 0 0 0-2.3-1.8l-.7.7a14 14 0 0 1 2.3 2Zm-.6 3.7a14.6 14.6 0 0 0-2.5-1.5l-.6.7C1.5-7 2.6-6.3 3-5.8Zm-.5 2A43.9 43.9 0 0 1 1 .2l1 .6A66 66 0 0 0 4.1-4Zm3.2-1.4h5.7v.8H6.5Zm0-2.2h5.7V-7H6.5Zm7.7 6.2v-1.1H9.6l.2-1h3.4V-9H5.5v4.7h3.2l-.2 1.2h-4v1H8C7.5-1 6.4-.3 4 .2c.2.3.5.7.5 1C7.4.5 8.7-.5 9.3-2.2c.9 1.7 2.4 2.8 4.5 3.4a4 4 0 0 1 .7-1c-1.9-.2-3.3-1.1-4.1-2.4Zm0-.1"/>  <path id="e" d="M9-12.5v7.8c0 .2-.1.2-.3.2H6.9l.3 1h2.4c.3-.4.4-.7.4-1.3v-7.7Zm-2.5 2.4C6-8.6 5.3-7 4.5-6a8 8 0 0 1 1 .7A15.7 15.7 0 0 0 7.4-10Zm5 .1a17 17 0 0 1 1.9 4.2l1-.5a16.5 16.5 0 0 0-2-4Zm.7 4.3C11.3-2.5 9-.8 4.9.2l.6 1c4.3-1 6.8-3 7.8-6.6ZM1.4-11.8a12 12 0 0 1 2.7 2l.7-1C4.2-11.3 3-12 2-12.4ZM.6-7.6A13 13 0 0 1 3.4-6L4-7a12.3 12.3 0 0 0-2.8-1.3ZM1.1.3l1 .6a63.4 63.4 0 0 0 2.5-4.8l-.8-.7C3-2.9 1.8-.9 1 .2Zm0-.1"/>  <path id="d" d="M7-5.2c-.2-.4-1.8-2.3-2.3-2.7v-.4h2.1v-1H4.6v-3.3h-1v3.3H.8v1h2.5C2.8-6.2 1.6-3.9.5-2.6l.6 1c.9-1 1.8-2.8 2.4-4.6v7.3h1.1v-7.7l1.7 2.3Zm7-3v-1.2h-2.8v-3.2h-1v3.3H7.3v1H10C9.2-5.9 7.8-3.4 6.4-2c.2.2.5.6.6 1 1.2-1.3 2.3-3.3 3.1-5.3V1h1.1v-7.3c.7 2 1.5 3.8 2.5 5 .1-.3.5-.7.8-.9-1.2-1.3-2.3-3.7-3-6Zm0-.1"/>  <path id="c" d="M11.2-3.4v3H4v-3.1ZM2.8 1.3h1V.6h7.5v.7h1.1v-5.8H2.7ZM14-9.4v-1H8v-2.3H7v2.2H1v1h6v2.4H2v.9h11.1v-.9H8v-2.3Zm0 0"/>  <path id="b" d="M5.6-9.3c1 .8 2.4 2 2.9 2.7l.8-.7c-.6-.8-1.9-1.9-3-2.7ZM4.1-6v-4.7h7V-6ZM14-6h-1.8v-5.8H3V-6H.9v1h2C2.8-3 2.2-1 .6.4l.8.8C3.2-.5 3.9-2.8 4-5h7v4.7c0 .3 0 .3-.4.3H8l.4 1h3c.6-.2.8-.6.8-1.3V-5h2Zm.2 0"/>  <path id="a" d="M6.8-10.6v4.2H3.1v-4.2Zm4.9 4.2H7.9v-4.2h3.8ZM5.1-.2C3.4-.2 3-.5 3-1.7v-3.7h8.7v.8h1.1v-7H2v9.9C2 .3 2.7.8 5.2.8H11c2.4.1 2.9-.8 3-3.1-.1 0-.6-.3-.8-.5-.5 2-.7 2.6-2.2 2.6ZM5-.2"/>  <path d="M1.5 1.8h12v-15h-12Zm6-8.1-4.8-6.2h9.6Zm.5.6 4.8-6.1V.4ZM2.7 1l4.8-6 4.8 6Zm-.5-12.8L7-5.7 2.2.4Zm.1 0"/> </defs> <image xlink:href="svg/9/33_1.jpg" width="497" height="279"/> <path d="M41.8 130.1v4.2h-3.7v-4.2Zm4.9 4.2h-3.8v-4.2h3.8Zm-6.7 6.2c-1.6 0-2-.3-2-1.4v-3.7h8.7v.8h1.1V129H37v10c0 2 .7 2.6 3 2.6h6.1c2.3 0 2.8-.8 2.9-3.2-.1 0-.6-.3-.8-.4-.5 2-.7 2.5-2.2 2.5Zm15.6-9.1c1 .8 2.3 2 2.9 2.7l.8-.7c-.6-.7-1.9-1.9-3-2.6Zm-1.5 3.3V130h7v4.7Zm9.9 0h-1.8V129H53v5.7h-2.2v1H53c-.2 2.1-.8 4.1-2.4 5.5l.8.8c1.8-1.7 2.4-4 2.6-6.2h7v4.6c0 .3 0 .4-.4.4H58l.4 1h3c.6-.3.7-.6.7-1.4v-4.6h2Zm12.2 2.6v3H69v-3Zm-8.5 4.7H69v-.7h7.2v.7h1.2v-5.7h-9.7ZM79 131.3v-1h-6v-2.1h-1v2h-6.1v1.2H72v2.1h-5.1v1h11.3v-.9H73v-2.3Zm8 4.2-2.3-2.7v-.3h2.1v-1.1h-2.2v-3.2h-1v3.2h-2.8v1h2.5c-.5 2.2-1.7 4.5-2.8 5.8l.5.8c1-.9 1.9-2.7 2.5-4.5v7.5h1.1v-8l1.7 2.5Zm7-3v-1.1h-2.8v-3.2H90v3.2h-2.6v1h2.5c-.7 2.6-2.1 5-3.6 6.4l.7.9c1.2-1.2 2.3-3.2 3.1-5.2v7.4h1v-7.4c.8 2 1.7 3.8 2.6 5 .1-.5.5-.9.8-1.1-1.2-1.2-2.3-3.6-3-5.9ZM59 148v7.9c0 .1-.2.2-.5.2H57l.2.9h2.3c.4-.2.5-.5.5-1.2v-7.7Zm-2.6 2.5c-.4 1.5-1.1 3.1-1.9 4.2a8 8 0 0 1 1 .5 15.7 15.7 0 0 0 1.9-4.5Zm5.1.2a17 17 0 0 1 1.9 4l1-.3a16.5 16.5 0 0 0-2.2-4.1Zm.7 4.1c-.9 3.3-3.2 5.2-7.3 6 .1.2.5.5.6.9 4.3-.9 6.7-2.9 7.8-6.7ZM51.4 149a12 12 0 0 1 2.7 1.7l.7-1c-.6-.4-1.8-1-2.8-1.5Zm-.8 4a13 13 0 0 1 2.8 1.7l.6-1.1a12.3 12.3 0 0 0-2.8-1.4Zm.5 7.9 1 .6a63.4 63.4 0 0 0 2.5-4.8l-.8-.7-2.8 4.8Zm20.9-9.6h1.1v-1h2.5v.9h1v-.9h2.5v-1.1h-2.5V148h-1v1.3H73V148h-.9v1.3h-2.5v1H72Zm-2.6-1.2a13 13 0 0 0-2.3-1.7l-.7.6a14 14 0 0 1 2.3 2Zm-.6 3.9a14.6 14.6 0 0 0-2.5-1.7l-.6.8c.8.5 1.9 1.2 2.3 1.7Zm-.6 2a43.9 43.9 0 0 1-2.2 4.7l1 .6a66 66 0 0 0 2-4.7Zm3.3-1.7h5.7v1h-5.7Zm0-1.8h5.7v1h-5.7Zm7.7 6v-1.1h-4.6l.2-1.2h3.4v-4.6h-7.7v4.6h3.2l-.2 1.3h-4v1H73c-.5.9-1.7 1.8-4 2.2l.5 1.1c2.9-.8 4.2-1.8 4.8-3.5.8 1.8 2.4 2.9 4.5 3.4a4 4 0 0 1 .6-1c-1.8-.2-3.2-.9-4-2.2Zm0-.1" style="fill:none;stroke-width:2;stroke-linecap:butt;stroke-linejoin:round;stroke:#fff;stroke-opacity:.6;stroke-miterlimit:10" transform=" rotate(  340 64.9876 147.65) "/> <g style="fill:#a07e1c;fill-opacity:1" transform=" rotate(  340 64.9876 147.65) ">  <use xlink:href="#a" x="35" y="140.7"/>  <use xlink:href="#b" x="50" y="140.7"/>  <use xlink:href="#c" x="65" y="140.7"/>  <use xlink:href="#d" x="80" y="140.7"/>  <use xlink:href="#e" x="50" y="160.6"/>  <use xlink:href="#f" x="65" y="160.6"/> </g></svg>
